packages/icons/src/assets/raw/outlined/SVG/outlined-content-channel.svg

<svg viewBox="0 0 24 24" xmlns="http://www.w3.org/2000/svg">
  <path d="M 12.008 22.5 C 3.925 22.5 -1.127 13.75 2.915 6.75 C 6.956 -0.25 17.06 -0.25 21.101 6.75 C 22.023 8.346 22.508 10.157 22.508 12 C 22.502 17.797 17.805 22.494 12.008 22.5 Z M 12.008 2.5 C 4.695 2.5 0.124 10.417 3.781 16.75 C 7.437 23.083 16.579 23.083 20.235 16.75 C 21.069 15.306 21.508 13.668 21.508 12 C 21.502 6.756 17.252 2.506 12.008 2.5 Z M 10.538 16.17 C 9.433 16.17 8.538 15.275 8.538 14.17 L 8.538 9.92 C 8.542 9.568 8.638 9.223 8.818 8.92 C 9.08 8.47 9.507 8.14 10.008 8 C 10.529 7.867 11.081 7.943 11.548 8.21 L 15.148 10.28 C 15.507 10.468 15.8 10.761 15.988 11.12 C 16.529 12.107 16.149 13.346 15.148 13.86 L 11.548 15.93 C 11.243 16.104 10.899 16.197 10.548 16.2 Z M 10.268 8.91 C 10.001 8.976 9.773 9.15 9.638 9.39 C 9.546 9.544 9.498 9.721 9.498 9.9 L 9.498 14.13 C 9.499 14.402 9.611 14.662 9.808 14.85 C 9.999 15.04 10.259 15.144 10.528 15.14 C 10.704 15.138 10.877 15.09 11.028 15 L 14.678 13 C 15.202 12.754 15.409 12.116 15.128 11.61 C 15.052 11.466 14.942 11.342 14.808 11.25 L 11.068 9.05 C 10.909 8.96 10.73 8.912 10.548 8.91 Z"/>
</svg>

<svg xmlns="http://www.w3.org/2000/svg" viewBox="0 0 24 24">
  <path d="M12 22.5A10.5 10.5 0 1122.5 12 10.51 10.51 0 0112 22.5zm0-20a9.5 9.5 0 109.5 9.5A9.51 9.51 0 0012 2.5z"/>
  <path d="M10.53 16.17a2 2 0 01-2-2V9.92a2 2 0 01.28-1A2 2 0 0110 8a2.07 2.07 0 011.54.21l3.6 2.07a2 2 0 01.84.84 2 2 0 01-.84 2.74l-3.6 2.07a2.05 2.05 0 01-1 .27zm0-7.26h-.27a1 1 0 00-.63.48 1 1 0 00-.14.51v4.23a1 1 0 00.31.72 1 1 0 00.72.29 1 1 0 00.5-.14l3.65-2a1 1 0 00.45-1.39 1 1 0 00-.32-.36l-3.74-2.2a1.07 1.07 0 00-.52-.14z"/>
</svg>
